X: 615
T: Grant's Rant
C:Rutherford, 1772
B: jims roots
M:C|
L:1/8
R: Reel
Q: 1/4=100
K:D
V:1 
%Z:Anselm Lingnau <anselm@strathspey.org>
|:FG|"D"A3B AFDF|AFdB AFDF|"G"GBGE "D"FAFD|
"A"E2E2E3 A| "D"FDFA d3f|"G"edcB "D"A2Bc|d2cB "E7"c2B2|"A"A2A2A2 ||
cd|"A"e3 f ecac|ecaf ecAc|"D"dfdB "A"eceA|
"E"B2B2B2 (3ABc| "D"d3B AFDF|"G"GABc "D"d2cB|"G"BAGF "A"EGFE|"D"D2D2D2:|
% abcbook-tune_id 6298c25d375972b44d83a533


% abcbook-boost 0
% abcbook-tablature 
% abcbook-transpose 
% abcbook-lastupdated 1654178398395
% abcbook-soundfonts 
% abcbook-repeats 1


